to-be-renamed/bl_icons_590.svg

<?xml version="1.0" encoding="UTF-8" standalone="no"?>
<svg
   xmlns:dc="http://purl.org/dc/elements/1.1/"
   xmlns:cc="http://creativecommons.org/ns#"
   xmlns:rdf="http://www.w3.org/1999/02/22-rdf-syntax-ns#"
   xmlns:svg="http://www.w3.org/2000/svg"
   xmlns="http://www.w3.org/2000/svg"
   xmlns:sodipodi="http://sodipodi.sourceforge.net/DTD/sodipodi-0.dtd"
   xmlns:inkscape="http://www.inkscape.org/namespaces/inkscape"
   id="Layer_1"
   x="0"
   y="0"
   enable-background="new 0 0 20 20"
   version="1.1"
   viewBox="0 0 20 20"
   xml:space="preserve"
   sodipodi:docname="bl_icons_590.svg"
   inkscape:version="1.0.2 (e86c870879, 2021-01-15, custom)"><metadata
     id="metadata7"><rdf:RDF><cc:Work
         rdf:about=""><dc:format>image/svg+xml</dc:format><dc:type
           rdf:resource="http://purl.org/dc/dcmitype/StillImage" /><dc:title></dc:title></cc:Work></rdf:RDF></metadata><defs
     id="defs5" /><sodipodi:namedview
     pagecolor="#808080"
     bordercolor="#666666"
     borderopacity="1"
     objecttolerance="10"
     gridtolerance="10"
     guidetolerance="10"
     inkscape:pageopacity="0"
     inkscape:pageshadow="2"
     inkscape:window-width="1750"
     inkscape:window-height="991"
     id="namedview3"
     showgrid="false"
     inkscape:pagecheckerboard="true"
     inkscape:zoom="25.577418"
     inkscape:cx="-0.44644607"
     inkscape:cy="8.0087009"
     inkscape:window-x="87"
     inkscape:window-y="37"
     inkscape:window-maximized="0"
     inkscape:current-layer="Layer_1"
     inkscape:document-rotation="0" /><path
     style="color:#000000;font-style:normal;font-variant:normal;font-weight:normal;font-stretch:normal;font-size:medium;line-height:normal;font-family:sans-serif;font-variant-ligatures:normal;font-variant-position:normal;font-variant-caps:normal;font-variant-numeric:normal;font-variant-alternates:normal;font-feature-settings:normal;text-indent:0;text-align:start;text-decoration:none;text-decoration-line:none;text-decoration-style:solid;text-decoration-color:#000000;letter-spacing:normal;word-spacing:normal;text-transform:none;writing-mode:lr-tb;direction:ltr;text-orientation:mixed;dominant-baseline:auto;baseline-shift:baseline;text-anchor:start;white-space:normal;shape-padding:0;clip-rule:nonzero;display:inline;overflow:visible;visibility:visible;opacity:0.6;isolation:auto;mix-blend-mode:normal;color-interpolation:sRGB;color-interpolation-filters:linearRGB;solid-color:#000000;solid-opacity:1;vector-effect:none;fill:#ffffff;fill-opacity:1;fill-rule:nonzero;stroke:none;stroke-width:1;stroke-linecap:round;stroke-linejoin:round;stroke-miterlimit:4;stroke-dasharray:none;stroke-dashoffset:0;stroke-opacity:1;marker:none;paint-order:fill markers stroke;color-rendering:auto;image-rendering:auto;shape-rendering:auto;text-rendering:auto;enable-background:new"
     d="m 9.99219,3.0000297 a 0.50005,0.50005 0 0 0 -0.34571,0.14648 C 8.24469,4.5483097 6.68939,5.0000297 4,5.0000297 a 0.50005,0.50005 0 0 0 -0.5,0.5 v 3 c 0,2.4627193 0.6805,4.0681793 1.78711,5.2753893 1.10661,1.20722 2.57356,2.02419 4.17773,3.13477 A 0.50005,0.50005 0 0 0 9.75,17.000029 h 0.5 a 0.50005,0.50005 0 0 0 0.28516,-0.0898 c 1.60417,-1.11058 3.07112,-1.92755 4.17773,-3.13477 C 15.8195,12.568209 16.5,10.962749 16.5,8.5000297 v -3 a 0.50005,0.50005 0 0 0 -0.5,-0.5 c -2.68939,0 -4.24469,-0.45172 -5.64648,-1.85352 a 0.50005,0.50005 0 0 0 -0.36133,-0.14648 z m 0.008,1.07031 c 1.42533,1.26825 3.16641,1.79779 5.5,1.86524 v 2.56445 c 0,2.2872793 -0.5695,3.5568193 -1.52539,4.5996093 -0.92707,1.01135 -2.30655,1.81425 -3.88867,2.90039 H 9.91425 C 8.33213,14.913889 6.95265,14.110989 6.02558,13.099639 5.0695,12.056849 4.5,10.787309 4.5,8.5000297 v -2.56445 c 2.33359,-0.0675 4.07467,-0.59699 5.5,-1.86524 z"
     id="path22877-22-0"
     inkscape:connector-curvature="0" /></svg>

<svg xmlns="http://www.w3.org/2000/svg" viewBox="0 0 20 20" xml:space="preserve">
    <path style="color:#000;font-style:normal;font-variant:normal;font-weight:400;font-stretch:normal;font-size:medium;line-height:normal;font-family:sans-serif;font-variant-ligatures:normal;font-variant-position:normal;font-variant-caps:normal;font-variant-numeric:normal;font-variant-alternates:normal;font-feature-settings:normal;text-indent:0;text-align:start;text-decoration:none;text-decoration-line:none;text-decoration-style:solid;text-decoration-color:#000;letter-spacing:normal;word-spacing:normal;text-transform:none;writing-mode:lr-tb;direction:ltr;text-orientation:mixed;dominant-baseline:auto;baseline-shift:baseline;text-anchor:start;white-space:normal;shape-padding:0;clip-rule:nonzero;display:inline;overflow:visible;visibility:visible;opacity:.6;isolation:auto;mix-blend-mode:normal;color-interpolation:sRGB;color-interpolation-filters:linearRGB;solid-color:#000;solid-opacity:1;vector-effect:none;fill:#fff;fill-opacity:1;fill-rule:nonzero;stroke:none;stroke-width:1;stroke-linecap:round;stroke-linejoin:round;stroke-miterlimit:4;stroke-dasharray:none;stroke-dashoffset:0;stroke-opacity:1;marker:none;paint-order:fill markers stroke;color-rendering:auto;image-rendering:auto;shape-rendering:auto;text-rendering:auto;enable-background:new" d="M9.992 3a.5.5 0 0 0-.346.147C8.245 4.548 6.69 5 4 5a.5.5 0 0 0-.5.5v3c0 2.463.68 4.068 1.787 5.275 1.107 1.208 2.574 2.025 4.178 3.135a.5.5 0 0 0 .285.09h.5a.5.5 0 0 0 .285-.09c1.604-1.11 3.071-1.927 4.178-3.135C15.82 12.568 16.5 10.963 16.5 8.5v-3A.5.5 0 0 0 16 5c-2.69 0-4.245-.452-5.646-1.853A.5.5 0 0 0 9.992 3zM10 4.07c1.426 1.269 3.167 1.798 5.5 1.866V8.5c0 2.287-.57 3.557-1.525 4.6-.927 1.011-2.307 1.814-3.889 2.9h-.172c-1.582-1.086-2.961-1.889-3.888-2.9C5.069 12.057 4.5 10.787 4.5 8.5V5.936c2.334-.068 4.075-.597 5.5-1.866z"/>
</svg>
